X:22
T:Chunguinada
R:waynu
O:Peru
Z:id:hn-waynu-22
M:2/4
L:1/8
Q:1/4=90
K:Em
E/GB/ | e3g | ed dB | d/eg/ ed |1 B4- | B2 :|2 B4 ||
ee eg | ed dB | d/eg/ ed | B2- B/A/B/G/ | D3 A/B/ | G2 E2- | E2 ||

